actions/scalable/media-playlist-shuffle.svg

<?xml version="1.0" encoding="UTF-8" standalone="no"?>
<!-- Created with Inkscape (http://www.inkscape.org/) -->

<svg
   xmlns:dc="http://purl.org/dc/elements/1.1/"
   xmlns:cc="http://creativecommons.org/ns#"
   xmlns:rdf="http://www.w3.org/1999/02/22-rdf-syntax-ns#"
   xmlns:svg="http://www.w3.org/2000/svg"
   xmlns="http://www.w3.org/2000/svg"
   xmlns:sodipodi="http://sodipodi.sourceforge.net/DTD/sodipodi-0.dtd"
   xmlns:inkscape="http://www.inkscape.org/namespaces/inkscape"
   width="48"
   height="48"
   id="svg2"
   version="1.1"
   inkscape:version="0.49 r12742"
   sodipodi:docname="media-playlist-shuffle.svg">
  <defs
     id="defs4" />
  <sodipodi:namedview
     id="base"
     pagecolor="#ffffff"
     bordercolor="#666666"
     borderopacity="1.0"
     inkscape:pageopacity="0.0"
     inkscape:pageshadow="2"
     inkscape:zoom="11.477676"
     inkscape:cx="23.21839"
     inkscape:cy="32.211806"
     inkscape:document-units="px"
     inkscape:current-layer="layer1"
     showgrid="false"
     inkscape:window-width="1366"
     inkscape:window-height="718"
     inkscape:window-x="-2"
     inkscape:window-y="23"
     inkscape:window-maximized="1">
    <sodipodi:guide
       position="9,39.000017"
       orientation="30,0"
       id="guide3265" />
    <sodipodi:guide
       position="9,9.0000174"
       orientation="0,30"
       id="guide3267" />
    <sodipodi:guide
       position="39,9.0000174"
       orientation="-30,0"
       id="guide3269" />
    <sodipodi:guide
       position="39,39.000017"
       orientation="0,-30"
       id="guide3271" />
    <sodipodi:guide
       position="9,31.500017"
       orientation="4,0"
       id="guide4097" />
    <sodipodi:guide
       position="9,27.500017"
       orientation="0,4"
       id="guide4099" />
    <sodipodi:guide
       position="13,27.500017"
       orientation="-4,0"
       id="guide4101" />
    <sodipodi:guide
       position="13,31.500017"
       orientation="0,-4"
       id="guide4103" />
    <sodipodi:guide
       position="35.099998,20.500017"
       orientation="4,0"
       id="guide4105" />
    <sodipodi:guide
       position="35.099998,16.500017"
       orientation="0,4"
       id="guide4107" />
    <sodipodi:guide
       position="39.099998,20.500017"
       orientation="0,-4"
       id="guide4111" />
    <sodipodi:guide
       position="32.099998,12.500017"
       orientation="0,-23.099997"
       id="guide4124" />
    <sodipodi:guide
       position="9.0000019,16.500017"
       orientation="0,23.099997"
       id="guide4128" />
    <sodipodi:guide
       position="9,31.500017"
       orientation="0,22.999996"
       id="guide4132" />
    <sodipodi:guide
       position="31.999996,31.500017"
       orientation="-4,0"
       id="guide4134" />
    <sodipodi:guide
       position="31.999996,35.500017"
       orientation="0,-22.999996"
       id="guide4136" />
    <sodipodi:guide
       position="25,35.500017"
       orientation="4,0"
       id="guide4156" />
    <sodipodi:guide
       position="25,31.500017"
       orientation="0,7"
       id="guide4158" />
    <sodipodi:guide
       position="32,35.500017"
       orientation="0,-7"
       id="guide4162" />
    <sodipodi:guide
       position="25,16.500017"
       orientation="4,0"
       id="guide4164" />
    <sodipodi:guide
       position="20.9375,12.500017"
       orientation="0,7"
       id="guide4166" />
    <sodipodi:guide
       position="32,16.500017"
       orientation="0,-7"
       id="guide4170" />
  </sodipodi:namedview>
  <metadata
     id="metadata7">
    <rdf:RDF>
      <cc:Work
         rdf:about="">
        <dc:format>image/svg+xml</dc:format>
        <dc:type
           rdf:resource="http://purl.org/dc/dcmitype/StillImage" />
        <dc:title />
      </cc:Work>
    </rdf:RDF>
  </metadata>
  <g
     inkscape:label="Capa 1"
     inkscape:groupmode="layer"
     id="layer1"
     transform="translate(0,-1004.3622)">
    <path
       style="fill:#4d4d4d;fill-opacity:1;fill-rule:evenodd;stroke:none"
       d="m 32,9 0,3.5 -7,0 0,-0.0059 L 14.027344,31.5 9,31.5 l 0,4 2.716797,0 4.583984,0 0.03516,0 0.06445,-0.111328 L 27.304688,16.5 32,16.5 32,20 39,14.5 Z m -16.017578,3.494141 0,0.0059 L 9,12.5 l 0,4 4.677734,0 2.199219,3.808594 2.308594,-4 L 16,12.525391 16,12.5 l -0.01367,0 z M 32,28 l 0,3.5 -5.044922,0 -1.845703,-3.197266 -2.308594,3.998047 1.78125,3.087891 L 24.646484,35.5 25,35.5 l 4.265625,0 2.734375,0 0,3.5 7,-5.5 z"
       id="path4083"
       transform="translate(0,1004.3622)"
       inkscape:connector-curvature="0"
       sodipodi:nodetypes="cccccccccccccccccccccccccccccccccccccccc" />
  </g>
</svg>

<?xml version="1.0" encoding="UTF-8" standalone="no"?>
<!-- Created with Inkscape (http://www.inkscape.org/) -->

<svg
   xmlns:dc="http://purl.org/dc/elements/1.1/"
   xmlns:cc="http://creativecommons.org/ns#"
   xmlns:rdf="http://www.w3.org/1999/02/22-rdf-syntax-ns#"
   xmlns:svg="http://www.w3.org/2000/svg"
   xmlns="http://www.w3.org/2000/svg"
   xmlns:sodipodi="http://sodipodi.sourceforge.net/DTD/sodipodi-0.dtd"
   xmlns:inkscape="http://www.inkscape.org/namespaces/inkscape"
   width="48"
   height="48"
   id="svg2"
   version="1.1"
   inkscape:version="0.48+devel r12662"
   sodipodi:docname="media-playlist-shuffle.svg">
  <defs
     id="defs4" />
  <sodipodi:namedview
     id="base"
     pagecolor="#ffffff"
     bordercolor="#666666"
     borderopacity="1.0"
     inkscape:pageopacity="0.0"
     inkscape:pageshadow="2"
     inkscape:zoom="11.477676"
     inkscape:cx="19.118937"
     inkscape:cy="24.425325"
     inkscape:document-units="px"
     inkscape:current-layer="layer1"
     showgrid="false"
     inkscape:window-width="1366"
     inkscape:window-height="714"
     inkscape:window-x="0"
     inkscape:window-y="30"
     inkscape:window-maximized="1">
    <sodipodi:guide
       position="9,39.000017"
       orientation="30,0"
       id="guide3265" />
    <sodipodi:guide
       position="9,9.0000174"
       orientation="0,30"
       id="guide3267" />
    <sodipodi:guide
       position="39,9.0000174"
       orientation="-30,0"
       id="guide3269" />
    <sodipodi:guide
       position="39,39.000017"
       orientation="0,-30"
       id="guide3271" />
    <sodipodi:guide
       position="9,31.500017"
       orientation="4,0"
       id="guide4097" />
    <sodipodi:guide
       position="9,27.500017"
       orientation="0,4"
       id="guide4099" />
    <sodipodi:guide
       position="13,27.500017"
       orientation="-4,0"
       id="guide4101" />
    <sodipodi:guide
       position="13,31.500017"
       orientation="0,-4"
       id="guide4103" />
    <sodipodi:guide
       position="35.099998,20.500017"
       orientation="4,0"
       id="guide4105" />
    <sodipodi:guide
       position="35.099998,16.500017"
       orientation="0,4"
       id="guide4107" />
    <sodipodi:guide
       position="39.099998,20.500017"
       orientation="0,-4"
       id="guide4111" />
    <sodipodi:guide
       position="32.099998,12.500017"
       orientation="0,-23.099997"
       id="guide4124" />
    <sodipodi:guide
       position="9.0000019,16.500017"
       orientation="0,23.099997"
       id="guide4128" />
    <sodipodi:guide
       position="9,31.500017"
       orientation="0,22.999996"
       id="guide4132" />
    <sodipodi:guide
       position="31.999996,31.500017"
       orientation="-4,0"
       id="guide4134" />
    <sodipodi:guide
       position="31.999996,35.500017"
       orientation="0,-22.999996"
       id="guide4136" />
    <sodipodi:guide
       position="25,35.500017"
       orientation="4,0"
       id="guide4156" />
    <sodipodi:guide
       position="25,31.500017"
       orientation="0,7"
       id="guide4158" />
    <sodipodi:guide
       position="32,35.500017"
       orientation="0,-7"
       id="guide4162" />
    <sodipodi:guide
       position="25,16.500017"
       orientation="4,0"
       id="guide4164" />
    <sodipodi:guide
       position="20.9375,12.500017"
       orientation="0,7"
       id="guide4166" />
    <sodipodi:guide
       position="32,16.500017"
       orientation="0,-7"
       id="guide4170" />
  </sodipodi:namedview>
  <metadata
     id="metadata7">
    <rdf:RDF>
      <cc:Work
         rdf:about="">
        <dc:format>image/svg+xml</dc:format>
        <dc:type
           rdf:resource="http://purl.org/dc/dcmitype/StillImage" />
        <dc:title />
      </cc:Work>
    </rdf:RDF>
  </metadata>
  <g
     inkscape:label="Capa 1"
     inkscape:groupmode="layer"
     id="layer1"
     transform="translate(0,-1004.3622)">
    <rect
       style="fill:none;stroke:none"
       id="rect3261"
       width="30"
       height="30"
       x="9"
       y="1013.3622" />
    <path
       style="fill:#4d4d4d;fill-opacity:1;fill-rule:evenodd;stroke:none"
       d="M 13.759766 8.6445312 L 13.144531 9 L 13.964844 9 L 13.759766 8.6445312 z M 27.222656 8.6445312 L 27.017578 9 L 27.837891 9 L 27.222656 8.6445312 z M 32 9 L 32 12.5 L 25 12.5 L 25 12.494141 L 14.027344 31.5 L 9 31.5 L 9 35.5 L 11.716797 35.5 L 16.300781 35.5 L 16.335938 35.5 L 16.400391 35.388672 L 27.304688 16.5 L 32 16.5 L 32 20 L 39 14.5 L 32 9 z M 15.982422 12.494141 L 15.982422 12.5 L 9 12.5 L 9 16.5 L 13.677734 16.5 L 15.876953 20.308594 L 18.185547 16.308594 L 16 12.525391 L 16 12.5 L 15.986328 12.5 L 15.982422 12.494141 z M 32 28 L 32 31.5 L 26.955078 31.5 L 25.109375 28.302734 L 22.800781 32.300781 L 24.582031 35.388672 L 24.646484 35.5 L 25 35.5 L 29.265625 35.5 L 32 35.5 L 32 39 L 39 33.5 L 32 28 z "
       id="path4083"
       transform="translate(0,1004.3622)" />
  </g>
</svg>
